truck-alert-outline.svg

<svg fill="currentColor" viewBox="0 0 24 24"><path d="M8 12h2v2H8zm0-5h2v4H8zm10 11.5c.8 0 1.5-.7 1.5-1.5s-.7-1.5-1.5-1.5-1.5.7-1.5 1.5.7 1.5 1.5 1.5m1.5-9H17V12h4.5zM6 18.5c.8 0 1.5-.7 1.5-1.5s-.7-1.5-1.5-1.5-1.5.7-1.5 1.5.7 1.5 1.5 1.5M20 8l3 4v5h-2c0 1.7-1.3 3-3 3s-3-1.3-3-3H9c0 1.7-1.3 3-3 3s-3-1.3-3-3H1V6c0-1.1.9-2 2-2h14v4zM3 6v9h.8c.5-.6 1.4-1 2.2-1s1.7.4 2.2 1H15V6z"/></svg>

<svg  viewBox="0 0 24 24" fill="currentColor"><path  d="M8 12H10V14H8V12M8 7H10V11H8V7M18 18.5C18.8 18.5 19.5 17.8 19.5 17S18.8 15.5 18 15.5 16.5 16.2 16.5 17 17.2 18.5 18 18.5M19.5 9.5H17V12H21.5L19.5 9.5M6 18.5C6.8 18.5 7.5 17.8 7.5 17S6.8 15.5 6 15.5 4.5 16.2 4.5 17 5.2 18.5 6 18.5M20 8L23 12V17H21C21 18.7 19.7 20 18 20S15 18.7 15 17H9C9 18.7 7.7 20 6 20S3 18.7 3 17H1V6C1 4.9 1.9 4 3 4H17V8H20M3 6V15H3.8C4.3 14.4 5.2 14 6 14S7.7 14.4 8.2 15H15V6H3Z"/></svg>
